content/blogs/regnskap/hva-er-varelager/bransje-optimalisering.svg

<svg xmlns="http://www.w3.org/2000/svg" width="600" height="400" viewBox="0 0 600 400"><defs><linearGradient id="a" x1="0%" x2="100%" y1="0%" y2="0%"><stop offset="0%" style="stop-color:#065f46;stop-opacity:1"/><stop offset="100%" style="stop-color:#059669;stop-opacity:1"/></linearGradient></defs><path fill="#fff" d="M0 0h600v400H0z"/><path fill="url(#a)" d="M0 0h600v50H0z"/><text x="300" y="30" fill="#fff" font-family="Arial, sans-serif" font-size="18" font-weight="bold" text-anchor="middle">Bransjespecifikk Lageroptimalisering</text><rect width="170" height="150" x="30" y="70" fill="#fef3c7" stroke="#f59e0b" stroke-width="2" rx="8"/><text x="115" y="95" fill="#92400e" font-family="Arial, sans-serif" font-size="14" font-weight="bold" text-anchor="middle">DETALJHANDEL</text><rect width="130" height="60" x="50" y="105" fill="#fffbeb" stroke="#fbbf24" rx="4"/><text x="115" y="120" fill="#92400e" font-family="Arial, sans-serif" font-size="11" font-weight="bold" text-anchor="middle">Optimaliserings-KPIer</text><text x="60" y="135" fill="#374151" font-family="Arial, sans-serif" font-size="9">• Lageromsetning: 15-25x</text><text x="60" y="147" fill="#374151" font-family="Arial, sans-serif" font-size="9">• Fill rate: &gt;98%</text><text x="60" y="159" fill="#374151" font-family="Arial, sans-serif" font-size="9">• Svinn: &lt;1%</text><text x="40" y="185" fill="#92400e" font-family="Arial, sans-serif" font-size="11" font-weight="bold">Strategier:</text><text x="40" y="200" fill="#374151" font-family="Arial, sans-serif" font-size="9">• Automatiserte prissystemer</text><text x="40" y="212" fill="#374151" font-family="Arial, sans-serif" font-size="9">• Kategoristyring</text><rect width="170" height="150" x="215" y="70" fill="#dcfce7" stroke="#16a34a" stroke-width="2" rx="8"/><text x="300" y="95" fill="#15803d" font-family="Arial, sans-serif" font-size="14" font-weight="bold" text-anchor="middle">PRODUKSJON</text><rect width="130" height="60" x="235" y="105" fill="#f0fdf4" stroke="#34d399" rx="4"/><text x="300" y="120" fill="#15803d" font-family="Arial, sans-serif" font-size="11" font-weight="bold" text-anchor="middle">Lean Production KPIer</text><text x="245" y="135" fill="#374151" font-family="Arial, sans-serif" font-size="9">• WIP-omsetning: &gt;12x</text><text x="245" y="147" fill="#374151" font-family="Arial, sans-serif" font-size="9">• Leveringspresisjon: &gt;95%</text><text x="245" y="159" fill="#374151" font-family="Arial, sans-serif" font-size="9">• OEE: &gt;85%</text><text x="225" y="185" fill="#15803d" font-family="Arial, sans-serif" font-size="11" font-weight="bold">Lean Strategier:</text><text x="225" y="200" fill="#374151" font-family="Arial, sans-serif" font-size="9">• Kanban-styring</text><text x="225" y="212" fill="#374151" font-family="Arial, sans-serif" font-size="9">• Leverandørintegrasjon</text><rect width="170" height="150" x="400" y="70" fill="#fef2f2" stroke="#ef4444" stroke-width="2" rx="8"/><text x="485" y="95" fill="#dc2626" font-family="Arial, sans-serif" font-size="14" font-weight="bold" text-anchor="middle">HELSEVESEN</text><rect width="130" height="60" x="420" y="105" fill="#fefefe" stroke="#f87171" rx="4"/><text x="485" y="120" fill="#dc2626" font-family="Arial, sans-serif" font-size="11" font-weight="bold" text-anchor="middle">Kritiske KPIer</text><text x="430" y="135" fill="#374151" font-family="Arial, sans-serif" font-size="9">• Utløpsdato accuracy: 100%</text><text x="430" y="147" fill="#374151" font-family="Arial, sans-serif" font-size="9">• Temperaturavvik: 0%</text><text x="430" y="159" fill="#374151" font-family="Arial, sans-serif" font-size="9">• Sporbarhet: 100%</text><text x="410" y="185" fill="#dc2626" font-family="Arial, sans-serif" font-size="11" font-weight="bold">Compliance Strategier:</text><text x="410" y="200" fill="#374151" font-family="Arial, sans-serif" font-size="9">• FEFO-rotasjon</text><text x="410" y="212" fill="#374151" font-family="Arial, sans-serif" font-size="9">• Validert kjølekjede</text><rect width="170" height="130" x="30" y="240" fill="#e0e7ff" stroke="#6366f1" stroke-width="2" rx="8"/><text x="115" y="265" fill="#4338ca" font-family="Arial, sans-serif" font-size="14" font-weight="bold" text-anchor="middle">TEKNOLOGI</text><circle cx="115" cy="285" r="15" fill="#6366f1"/><path fill="none" stroke="#fff" stroke-width="1.5" d="M107 282q8-5 16 0M107 288q8 5 16 0"/><circle cx="111" cy="282" r="1.5" fill="#fff"/><circle cx="119" cy="288" r="1.5" fill="#fff"/><text x="40" y="315" fill="#4338ca" font-family="Arial, sans-serif" font-size="11" font-weight="bold">AI-drevne løsninger:</text><text x="40" y="330" fill="#374151" font-family="Arial, sans-serif" font-size="9">• Prediktiv etterspørsel</text><text x="40" y="342" fill="#374151" font-family="Arial, sans-serif" font-size="9">• Automatisk replenishment</text><text x="40" y="354" fill="#374151" font-family="Arial, sans-serif" font-size="9">• Anomali-deteksjon</text><rect width="170" height="130" x="215" y="240" fill="#ecfdf5" stroke="#10b981" stroke-width="2" rx="8"/><text x="300" y="265" fill="#047857" font-family="Arial, sans-serif" font-size="14" font-weight="bold" text-anchor="middle">BÆREKRAFT</text><path fill="#10b981" d="M290 280q10-5 20 0-5 10-10 5-5 5-10-5"/><path stroke="#047857" stroke-width="2" d="M300 280v10"/><text x="225" y="305" fill="#047857" font-family="Arial, sans-serif" font-size="11" font-weight="bold">Grønne strategier:</text><text x="225" y="320" fill="#374151" font-family="Arial, sans-serif" font-size="9">• Sirkulær økonomi</text><text x="225" y="332" fill="#374151" font-family="Arial, sans-serif" font-size="9">• Avfallsreduksjon</text><text x="225" y="344" fill="#374151" font-family="Arial, sans-serif" font-size="9">• Energieffektivitet</text><text x="225" y="356" fill="#374151" font-family="Arial, sans-serif" font-size="9">• Lokal leverandørkjeder</text><rect width="170" height="130" x="400" y="240" fill="#f3e8ff" stroke="#a855f7" stroke-width="2" rx="8"/><text x="485" y="265" fill="#7c3aed" font-family="Arial, sans-serif" font-size="14" font-weight="bold" text-anchor="middle">YTELSE</text><rect width="100" height="50" x="430" y="280" fill="#fff" stroke="#a855f7" rx="3"/><path fill="none" stroke="#a855f7" stroke-width="2" d="m440 320 10-10 10-5 10-5 10-5 10-5 10-5 10-5"/><circle cx="440" cy="320" r="2" fill="#a855f7"/><circle cx="460" cy="305" r="2" fill="#a855f7"/><circle cx="480" cy="295" r="2" fill="#a855f7"/><circle cx="500" cy="285" r="2" fill="#a855f7"/><circle cx="520" cy="280" r="2" fill="#a855f7"/><text x="410" y="350" fill="#7c3aed" font-family="Arial, sans-serif" font-size="11" font-weight="bold">Kontinuerlig forbedring:</text><text x="410" y="365" fill="#374151" font-family="Arial, sans-serif" font-size="9">• Benchmarking</text><circle cx="300" cy="385" r="20" fill="#f59e0b"/><text x="300" y="392" fill="#fff" font-family="Arial, sans-serif" font-size="12" font-weight="bold" text-anchor="middle">CORE</text><path stroke="#64748b" stroke-dasharray="4,4" stroke-width="2" d="m115 225 170 145M300 225v140M485 225 315 370M115 375l165 10M300 375v10M485 375l-165 10"/></svg>

<svg width="600" height="400" viewBox="0 0 600 400" xmlns="http://www.w3.org/2000/svg">
  <defs>
    <linearGradient id="optimGrad" x1="0%" y1="0%" x2="100%" y2="0%">
      <stop offset="0%" style="stop-color:#065f46;stop-opacity:1" />
      <stop offset="100%" style="stop-color:#059669;stop-opacity:1" />
    </linearGradient>
  </defs>
  

  <rect width="600" height="400" fill="#ffffff"/>
  

  <rect x="0" y="0" width="600" height="50" fill="url(#optimGrad)"/>
  <text x="300" y="30" text-anchor="middle" fill="white" font-family="Arial, sans-serif" font-size="18" font-weight="bold">Bransjespecifikk Lageroptimalisering</text>
  

  <rect x="30" y="70" width="170" height="150" fill="#fef3c7" stroke="#f59e0b" stroke-width="2" rx="8"/>
  <text x="115" y="95" text-anchor="middle" fill="#92400e" font-family="Arial, sans-serif" font-size="14" font-weight="bold">DETALJHANDEL</text>
  

  <rect x="50" y="105" width="130" height="60" fill="#fffbeb" stroke="#fbbf24" rx="4"/>
  <text x="115" y="120" text-anchor="middle" fill="#92400e" font-family="Arial, sans-serif" font-size="11" font-weight="bold">Optimaliserings-KPIer</text>
  <text x="60" y="135" fill="#374151" font-family="Arial, sans-serif" font-size="9">• Lageromsetning: 15-25x</text>
  <text x="60" y="147" fill="#374151" font-family="Arial, sans-serif" font-size="9">• Fill rate: >98%</text>
  <text x="60" y="159" fill="#374151" font-family="Arial, sans-serif" font-size="9">• Svinn: &lt;1%</text>
  
  <text x="40" y="185" fill="#92400e" font-family="Arial, sans-serif" font-size="11" font-weight="bold">Strategier:</text>
  <text x="40" y="200" fill="#374151" font-family="Arial, sans-serif" font-size="9">• Automatiserte prissystemer</text>
  <text x="40" y="212" fill="#374151" font-family="Arial, sans-serif" font-size="9">• Kategoristyring</text>
  

  <rect x="215" y="70" width="170" height="150" fill="#dcfce7" stroke="#16a34a" stroke-width="2" rx="8"/>
  <text x="300" y="95" text-anchor="middle" fill="#15803d" font-family="Arial, sans-serif" font-size="14" font-weight="bold">PRODUKSJON</text>
  

  <rect x="235" y="105" width="130" height="60" fill="#f0fdf4" stroke="#34d399" rx="4"/>
  <text x="300" y="120" text-anchor="middle" fill="#15803d" font-family="Arial, sans-serif" font-size="11" font-weight="bold">Lean Production KPIer</text>
  <text x="245" y="135" fill="#374151" font-family="Arial, sans-serif" font-size="9">• WIP-omsetning: >12x</text>
  <text x="245" y="147" fill="#374151" font-family="Arial, sans-serif" font-size="9">• Leveringspresisjon: >95%</text>
  <text x="245" y="159" fill="#374151" font-family="Arial, sans-serif" font-size="9">• OEE: >85%</text>
  
  <text x="225" y="185" fill="#15803d" font-family="Arial, sans-serif" font-size="11" font-weight="bold">Lean Strategier:</text>
  <text x="225" y="200" fill="#374151" font-family="Arial, sans-serif" font-size="9">• Kanban-styring</text>
  <text x="225" y="212" fill="#374151" font-family="Arial, sans-serif" font-size="9">• Leverandørintegrasjon</text>
  

  <rect x="400" y="70" width="170" height="150" fill="#fef2f2" stroke="#ef4444" stroke-width="2" rx="8"/>
  <text x="485" y="95" text-anchor="middle" fill="#dc2626" font-family="Arial, sans-serif" font-size="14" font-weight="bold">HELSEVESEN</text>
  

  <rect x="420" y="105" width="130" height="60" fill="#fefefe" stroke="#f87171" rx="4"/>
  <text x="485" y="120" text-anchor="middle" fill="#dc2626" font-family="Arial, sans-serif" font-size="11" font-weight="bold">Kritiske KPIer</text>
  <text x="430" y="135" fill="#374151" font-family="Arial, sans-serif" font-size="9">• Utløpsdato accuracy: 100%</text>
  <text x="430" y="147" fill="#374151" font-family="Arial, sans-serif" font-size="9">• Temperaturavvik: 0%</text>
  <text x="430" y="159" fill="#374151" font-family="Arial, sans-serif" font-size="9">• Sporbarhet: 100%</text>
  
  <text x="410" y="185" fill="#dc2626" font-family="Arial, sans-serif" font-size="11" font-weight="bold">Compliance Strategier:</text>
  <text x="410" y="200" fill="#374151" font-family="Arial, sans-serif" font-size="9">• FEFO-rotasjon</text>
  <text x="410" y="212" fill="#374151" font-family="Arial, sans-serif" font-size="9">• Validert kjølekjede</text>
  

  <rect x="30" y="240" width="170" height="130" fill="#e0e7ff" stroke="#6366f1" stroke-width="2" rx="8"/>
  <text x="115" y="265" text-anchor="middle" fill="#4338ca" font-family="Arial, sans-serif" font-size="14" font-weight="bold">TEKNOLOGI</text>
  

  <circle cx="115" cy="285" r="15" fill="#6366f1"/>
  <path d="M107 282 Q115 277 123 282" stroke="white" stroke-width="1.5" fill="none"/>
  <path d="M107 288 Q115 293 123 288" stroke="white" stroke-width="1.5" fill="none"/>
  <circle cx="111" cy="282" r="1.5" fill="white"/>
  <circle cx="119" cy="288" r="1.5" fill="white"/>
  
  <text x="40" y="315" fill="#4338ca" font-family="Arial, sans-serif" font-size="11" font-weight="bold">AI-drevne løsninger:</text>
  <text x="40" y="330" fill="#374151" font-family="Arial, sans-serif" font-size="9">• Prediktiv etterspørsel</text>
  <text x="40" y="342" fill="#374151" font-family="Arial, sans-serif" font-size="9">• Automatisk replenishment</text>
  <text x="40" y="354" fill="#374151" font-family="Arial, sans-serif" font-size="9">• Anomali-deteksjon</text>
  

  <rect x="215" y="240" width="170" height="130" fill="#ecfdf5" stroke="#10b981" stroke-width="2" rx="8"/>
  <text x="300" y="265" text-anchor="middle" fill="#047857" font-family="Arial, sans-serif" font-size="14" font-weight="bold">BÆREKRAFT</text>
  

  <path d="M290 280 Q300 275 310 280 Q305 290 300 285 Q295 290 290 280" fill="#10b981"/>
  <path d="M300 280 L300 290" stroke="#047857" stroke-width="2"/>
  
  <text x="225" y="305" fill="#047857" font-family="Arial, sans-serif" font-size="11" font-weight="bold">Grønne strategier:</text>
  <text x="225" y="320" fill="#374151" font-family="Arial, sans-serif" font-size="9">• Sirkulær økonomi</text>
  <text x="225" y="332" fill="#374151" font-family="Arial, sans-serif" font-size="9">• Avfallsreduksjon</text>
  <text x="225" y="344" fill="#374151" font-family="Arial, sans-serif" font-size="9">• Energieffektivitet</text>
  <text x="225" y="356" fill="#374151" font-family="Arial, sans-serif" font-size="9">• Lokal leverandørkjeder</text>
  

  <rect x="400" y="240" width="170" height="130" fill="#f3e8ff" stroke="#a855f7" stroke-width="2" rx="8"/>
  <text x="485" y="265" text-anchor="middle" fill="#7c3aed" font-family="Arial, sans-serif" font-size="14" font-weight="bold">YTELSE</text>
  

  <rect x="430" y="280" width="100" height="50" fill="white" stroke="#a855f7" rx="3"/>
  <path d="M440 320 L450 310 L460 305 L470 300 L480 295 L490 290 L500 285 L510 280" stroke="#a855f7" stroke-width="2" fill="none"/>
  <circle cx="440" cy="320" r="2" fill="#a855f7"/>
  <circle cx="460" cy="305" r="2" fill="#a855f7"/>
  <circle cx="480" cy="295" r="2" fill="#a855f7"/>
  <circle cx="500" cy="285" r="2" fill="#a855f7"/>
  <circle cx="520" cy="280" r="2" fill="#a855f7"/>
  
  <text x="410" y="350" fill="#7c3aed" font-family="Arial, sans-serif" font-size="11" font-weight="bold">Kontinuerlig forbedring:</text>
  <text x="410" y="365" fill="#374151" font-family="Arial, sans-serif" font-size="9">• Benchmarking</text>
  

  <circle cx="300" cy="385" r="20" fill="#f59e0b"/>
  <text x="300" y="392" text-anchor="middle" fill="white" font-family="Arial, sans-serif" font-size="12" font-weight="bold">CORE</text>
  

  <path d="M115 225 L285 370" stroke="#64748b" stroke-width="2" stroke-dasharray="4,4"/>
  <path d="M300 225 L300 365" stroke="#64748b" stroke-width="2" stroke-dasharray="4,4"/>
  <path d="M485 225 L315 370" stroke="#64748b" stroke-width="2" stroke-dasharray="4,4"/>
  <path d="M115 375 L280 385" stroke="#64748b" stroke-width="2" stroke-dasharray="4,4"/>
  <path d="M300 375 L300 385" stroke="#64748b" stroke-width="2" stroke-dasharray="4,4"/>
  <path d="M485 375 L320 385" stroke="#64748b" stroke-width="2" stroke-dasharray="4,4"/>
</svg>
